tools/download-figma-icons/icons/outlined-large/sharing-charging-station.svg

<svg width="64" height="64" viewBox="0 0 64 64" fill="none" xmlns="http://www.w3.org/2000/svg"><path fill-rule="evenodd" clip-rule="evenodd" d="M32 3c1.654 0 3 1.346 3 3s-1.346 3-3 3-3-1.346-3-3 1.346-3 3-3Zm-1.5 8.803V18.5a1.5 1.5 0 0 0 3 0v-6.697C36.084 11.134 38 8.79 38 6c0-3.309-2.691-6-6-6s-6 2.691-6 6c0 2.79 1.916 5.134 4.5 5.803ZM51 10c0 1.654 1.346 3 3 3s3-1.346 3-3-1.346-3-3-3-3 1.346-3 3Zm3-6c3.309 0 6 2.691 6 6 0 2.79-1.916 5.134-4.5 5.803V19.5c0 .363-.132.714-.371.987l-3.5 4a1.498 1.498 0 0 1-2.116.142 1.498 1.498 0 0 1-.142-2.116l3.129-3.576v-3.134C49.916 15.134 48 12.79 48 10c0-3.309 2.691-6 6-6ZM37 61H19V30.5c0-1.93 1.57-3.5 3.5-3.5h11c1.93 0 3.5 1.57 3.5 3.5V61Zm8.514-33.605a1.5 1.5 0 1 0-2.028 2.21L46 31.91v2.757C46 36.505 47.346 38 49 38v17.5c0 .827-.673 1.5-1.5 1.5s-1.5-.673-1.5-1.5c0-.11-.014-.218-.036-.321-.169-2.325-2.094-4.17-4.46-4.17H40V30.5c0-3.584-2.916-6.5-6.5-6.5h-11a6.508 6.508 0 0 0-6.5 6.5v32a1.5 1.5 0 0 0 1.5 1.5h21a1.5 1.5 0 0 0 1.5-1.5v-8.491h1.504c.823 0 1.492.669 1.492 1.491 0 .11.014.218.036.321C43.2 58.15 45.129 60 47.5 60c2.481 0 4.5-2.019 4.5-4.5V34a1.5 1.5 0 0 0-.486-1.105l-6-5.5ZM30.527 43h-2.46l2.732-4.752a1.5 1.5 0 1 0-2.599-1.496l-4.027 7a1.5 1.5 0 0 0 1.3 2.248h2.46L25.2 50.752a1.5 1.5 0 0 0 2.6 1.496l4.027-7a1.502 1.502 0 0 0-1.3-2.248ZM10 7c-1.654 0-3 1.346-3 3s1.346 3 3 3 3-1.346 3-3-1.346-3-3-3Zm0-3c3.309 0 6 2.691 6 6 0 2.79-1.916 5.134-4.5 5.803v3.266l2.272 3.636a1.5 1.5 0 0 1-2.544 1.59l-2.5-4A1.5 1.5 0 0 1 8.5 19.5v-3.697C5.916 15.134 4 12.79 4 10c0-3.309 2.691-6 6-6Z" fill="currentColor"/></svg>

<svg width="64" height="64" viewBox="0 0 64 64" fill="none" xmlns="http://www.w3.org/2000/svg">
<path fill-rule="evenodd" clip-rule="evenodd" d="M32 3C33.654 3 35 4.346 35 6C35 7.654 33.654 9 32 9C30.346 9 29 7.654 29 6C29 4.346 30.346 3 32 3ZM30.5 11.803V18.5C30.5 19.328 31.172 20 32 20C32.828 20 33.5 19.328 33.5 18.5V11.803C36.084 11.134 38 8.79 38 6C38 2.691 35.309 0 32 0C28.691 0 26 2.691 26 6C26 8.79 27.916 11.134 30.5 11.803ZM51 10C51 11.654 52.346 13 54 13C55.654 13 57 11.654 57 10C57 8.346 55.654 7 54 7C52.346 7 51 8.346 51 10ZM54 4C57.309 4 60 6.691 60 10C60 12.79 58.084 15.134 55.5 15.803V19.5C55.5 19.863 55.368 20.214 55.129 20.487L51.629 24.487C51.332 24.826 50.917 25 50.499 25C50.148 25 49.797 24.878 49.513 24.629C48.889 24.083 48.825 23.136 49.371 22.513L52.5 18.937V15.803C49.916 15.134 48 12.79 48 10C48 6.691 50.691 4 54 4ZM37 61H19V30.5C19 28.57 20.57 27 22.5 27H33.5C35.43 27 37 28.57 37 30.5V61ZM45.514 27.395C44.903 26.834 43.955 26.876 43.395 27.486C42.835 28.097 42.876 29.046 43.486 29.605L46 31.91V34.667C46 36.505 47.346 38 49 38V55.5C49 56.327 48.327 57 47.5 57C46.673 57 46 56.327 46 55.5C46 55.39 45.986 55.282 45.964 55.179C45.795 52.854 43.87 51.009 41.504 51.009H40V30.5C40 26.916 37.084 24 33.5 24H22.5C18.916 24 16 26.916 16 30.5V62.5C16 63.328 16.672 64 17.5 64H38.5C39.328 64 40 63.328 40 62.5V54.009H41.504C42.327 54.009 42.996 54.678 42.996 55.5C42.996 55.61 43.01 55.718 43.032 55.821C43.2 58.15 45.129 60 47.5 60C49.981 60 52 57.981 52 55.5V34C52 33.579 51.823 33.179 51.514 32.895L45.514 27.395ZM30.5273 43H28.0663L30.7993 38.248C31.2133 37.53 30.9653 36.613 30.2483 36.2C29.5313 35.787 28.6133 36.034 28.2003 36.752L24.1733 43.752C23.9053 44.216 23.9063 44.787 24.1733 45.251C24.4423 45.715 24.9373 46 25.4723 46H27.9333L25.2003 50.752C24.7873 51.47 25.0343 52.387 25.7523 52.8C25.9873 52.936 26.2453 53 26.4993 53C27.0173 53 27.5223 52.73 27.7993 52.248L31.8273 45.248C32.0943 44.784 32.0933 44.213 31.8263 43.749C31.5573 43.285 31.0623 43 30.5273 43ZM10 7C8.346 7 7 8.346 7 10C7 11.654 8.346 13 10 13C11.654 13 13 11.654 13 10C13 8.346 11.654 7 10 7ZM10 4C13.309 4 16 6.691 16 10C16 12.79 14.084 15.134 11.5 15.803V19.069L13.772 22.705C14.211 23.407 13.997 24.333 13.295 24.772C13.048 24.927 12.772 25 12.501 25C12.001 25 11.513 24.75 11.228 24.295L8.728 20.295C8.579 20.057 8.5 19.781 8.5 19.5V15.803C5.916 15.134 4 12.79 4 10C4 6.691 6.691 4 10 4Z" fill="black"/>
</svg>
